public/svg/css.svg

<svg width="192" height="192" viewBox="0 0 192 192" fill="none" xmlns="http://www.w3.org/2000/svg">
    <path fill-rule="evenodd" clip-rule="evenodd"
        d="M154.31 10.25C161.587 10.25 168.567 13.1411 173.713 18.2871C178.859 23.4331 181.75 30.4129 181.75 37.6904V154.311C181.75 161.588 178.859 168.568 173.713 173.714C168.567 178.86 161.587 181.75 154.31 181.75H37.6895C30.4122 181.75 23.433 178.86 18.2871 173.714C13.1412 168.568 10.25 161.588 10.25 154.311V10.25H154.31ZM72.1611 103.89C61.0137 103.89 53.6397 110.063 53.6396 121.554V150.366C53.6398 162.028 60.4993 168.03 71.3037 168.03C82.4512 168.202 90.3403 160.827 89.6543 148.308H76.9629C77.3059 152.767 75.7627 156.711 71.8184 156.711C68.0454 156.539 66.3301 153.967 66.3301 148.65V123.612C66.3301 118.124 67.5309 115.208 71.8184 115.208C75.2482 115.037 77.3059 118.467 76.9629 123.098H89.6543C89.9973 110.921 83.1371 103.718 72.1611 103.89ZM111.949 103.718C101.316 103.718 94.7988 110.921 94.7988 121.211C94.7988 130.472 98.0576 135.102 105.946 138.875L110.405 140.934C115.036 143.163 116.923 145.564 116.923 149.852C116.923 154.996 115.55 157.226 111.777 157.226C108.005 157.225 106.29 153.795 106.118 148.308H94.2842C94.4557 160.484 100.63 168.03 111.606 168.03C122.582 168.03 129.271 161.513 129.271 149.68C129.27 139.733 125.497 134.417 116.751 130.301L112.635 128.414C108.519 126.699 106.976 124.984 106.976 120.696C106.976 116.409 108.691 114.694 112.121 114.694C115.894 114.695 116.923 118.124 116.923 123.098H128.413C128.242 111.093 122.582 103.718 111.949 103.718ZM150.88 103.718C140.075 103.718 133.729 110.921 133.729 121.211C133.73 130.472 136.817 135.102 144.706 138.875L149.165 140.934C153.967 143.163 155.682 145.564 155.682 149.852C155.682 154.996 154.138 157.225 150.537 157.226C146.936 157.226 145.049 153.796 145.049 148.308H133.044C133.215 160.484 139.389 168.03 150.365 168.03C161.341 168.03 168.029 161.513 168.029 149.68C168.029 139.733 164.256 134.417 155.682 130.301L151.395 128.414C147.279 126.699 145.906 124.984 145.906 120.696C145.906 116.409 147.45 114.694 150.88 114.694C154.653 114.694 155.682 118.124 155.854 123.098H167.344C167.001 111.093 161.684 103.718 150.88 103.718Z"
        fill="#00D0FF" />
</svg>

<svg xmlns="http://www.w3.org/2000/svg" width="192" height="192" fill="none" viewBox="0 0 192 192"><path fill="#00d0ff" fill-rule="evenodd" d="M154.31 10.25a27.44 27.44 0 0 1 27.44 27.44v116.621a27.44 27.44 0 0 1-27.44 27.439H37.69a27.44 27.44 0 0 1-27.44-27.439V10.25zm-82.149 93.64c-11.147 0-18.521 6.173-18.521 17.664v28.812c0 11.662 6.86 17.664 17.664 17.664 11.147.172 19.036-7.203 18.35-19.722H76.963c.343 4.459-1.2 8.403-5.145 8.403-3.773-.172-5.488-2.744-5.488-8.061v-25.038c0-5.488 1.2-8.404 5.488-8.404 3.43-.171 5.488 3.259 5.145 7.89h12.691c.343-12.177-6.517-19.38-17.493-19.208m39.788-.172c-10.633 0-17.15 7.203-17.15 17.493 0 9.261 3.259 13.891 11.147 17.664l4.459 2.059c4.631 2.229 6.518 4.63 6.518 8.918 0 5.144-1.373 7.374-5.146 7.374-3.772-.001-5.487-3.431-5.659-8.918H94.284c.172 12.176 6.346 19.722 17.322 19.722s17.665-6.517 17.665-18.35c-.001-9.947-3.774-15.263-12.52-19.379l-4.116-1.887c-4.116-1.715-5.659-3.43-5.659-7.718 0-4.287 1.715-6.002 5.145-6.002 3.773.001 4.802 3.43 4.802 8.404h11.49c-.171-12.005-5.831-19.38-16.464-19.38m38.931 0c-10.805 0-17.151 7.203-17.151 17.493.001 9.261 3.088 13.891 10.977 17.664l4.459 2.059c4.802 2.229 6.517 4.63 6.517 8.918 0 5.144-1.544 7.373-5.145 7.374s-5.488-3.43-5.488-8.918h-12.005c.171 12.176 6.345 19.722 17.321 19.722s17.664-6.517 17.664-18.35c0-9.947-3.773-15.263-12.347-19.379l-4.287-1.887c-4.116-1.715-5.489-3.43-5.489-7.718 0-4.287 1.544-6.002 4.974-6.002 3.773 0 4.802 3.43 4.974 8.404h11.49c-.343-12.005-5.66-19.38-16.464-19.38" clip-rule="evenodd"/></svg>
